!!!!SEGMENT: pl-sa--481-a-viii-121--017_anonim--valc.krn
!!!cenid: 18xx:388
!!!COM: Anonim
!!!COM-rismID: pe30004985
!!!CDT:
!!!CNT:
!!!OTL: Valc
!!!PDT:
!!!AGN: Secular; Waltz
!!!SMS-siglum: PL-SA
!!!SMS-shelfmark: 481/A VIII 121
!!!SMS-shelfwork: 017 W
!!!SMS-variant:
!!!SMS-altvar:
!!!NIFC-rismSourceID: 1001070661
!!!NIFC-rismChildID: 1001070661
!!!NIFC-islandoraID: none
!!!URL-pdf-islandora:
!!!URL-scan: https://bc.bdsandomierz.pl/dlibra/publication/1212/edition/1171/content @EN{Scan in the Sandomierz Diocese Digital Library} @PL{Skany w portalu Cyfrowa Biblioteka Diecezjalna w Sandomierzu}
!!!ONB-nifc: Str. 10, s. 3-4
!!!AIN: 2 empty
!!!key:
**kern	**kern
*part2	*part1
*staff2	*staff1
*Iempty	*Iempty
*I"	*I"
*clefF4	*clefG2
*k[b-]	*k[b-]
*F:	*F:
*M3/8	*M3/8
=1	=1
!LO:TX:a:t=P:problem=caudy z prawej strony	!LO:TX:a:t=P:problem=caudy z prawej strony
8F\L	8cc\L
8A\	8aa\
8c\J	8gg\J
=2	=2
*rep	*
!LO:TX:a:t=P:problem=w źródle brak oznaczeń cyfrowych nad powtórzeniami	!
8F\L	8ff\L
8A\	8a\
8c\J	8cc\J
*Xrep	*
=3	=3
8E\L	8b-\L
8G\	8g\
8c\J	8ee\J
=4	=4
8F\L	8ff\L
8A\	8a\
8c\J	8cc\J
=5	=5
*rep	*
8F\L	8cc\L
8A\	8aa\
8c\J	8gg\J
*Xrep	*
=6	=6
*rep	*
8F\L	8ff\L
8A\	8a\
8c\J	8cc\J
*Xrep	*
=7	=7
8E\L	8b-\L
8G\	8g\
8c\J	8ee\J
=8	=8
4F\ 4A 4c	4a\ 4cc 4ff
8r	8r
=9:|!|:	=9:|!|:
8E\L	8b-\L
8G\	8g\
8c\J	8ee\J
=10	=10
8F\L	8ff\L
8A\	8a\
8c\J	8cc\J
=11	=11
8E\L	8b-\L
8G\	8g\
8c\J	8ee\J
=12	=12
8F\L	8ff\L
8A\	8a\
8c\J	8cc\J
=13	=13
*rep	*
8F\L	8cc\L
8A\	8aa\
8c\J	8gg\J
*Xrep	*
=14	=14
*rep	*
8F\L	8ff\L
8A\	8a\
8c\J	8cc\J
*Xrep	*
=15	=15
8E\L	8b-\L
8G\	8g\
8c\J	8ee\J
=16	=16
4F\ 4A 4c	4a\ 4ff
8r	8r
==:|!	==:|!
*-	*-
!!!system-decoration: [(s1,s2)]
!!!RDF**kern: > = above
!!!RDF**kern: < = below
!!!EED: Mateusz Mrugas
!!!EEV: 2020-11-21
!!!ENC: Berenika Jozajtis
!!!END: 2020-06-14
!!!YEC: Copyright 2022 Narodowy Instytut Fryderyka Chopina (https://polishscores.org)
!!!YEM: License CC-BY-4.0 (https://creativecommons.org/licenses/by/4.0)
